icons/Device/cast-line.svg

<svg viewBox="0 0 24 24" xmlns="http://www.w3.org/2000/svg"><path d="M3 3H21C21.5523 3 22 3.44772 22 4V20C22 20.5523 21.5523 21 21 21H15C15 20.3199 14.9478 19.6519 14.8471 19H20V5H4V8.1529C3.34806 8.05223 2.68013 8 2 8V4C2 3.44772 2.44772 3 3 3ZM13 21H11C11 16.0294 6.97056 12 2 12V10C8.07513 10 13 14.9249 13 21ZM9 21H7C7 18.2386 4.76142 16 2 16V14C5.86599 14 9 17.134 9 21ZM5 21H2V18C3.65685 18 5 19.3431 5 21Z"/></svg>

<svg xmlns="http://www.w3.org/2000/svg" viewBox="0 0 24 24">
    <g>
        <path fill="none" d="M0 0h24v24H0z"/>
        <path d="M3 3h18a1 1 0 0 1 1 1v16a1 1 0 0 1-1 1h-6a13.1 13.1 0 0 0-.153-2H20V5H4v3.153A13.1 13.1 0 0 0 2 8V4a1 1 0 0 1 1-1zm10 18h-2a9 9 0 0 0-9-9v-2c6.075 0 11 4.925 11 11zm-4 0H7a5 5 0 0 0-5-5v-2a7 7 0 0 1 7 7zm-4 0H2v-3a3 3 0 0 1 3 3z"/>
    </g>
</svg>
